X: 477
T: Dark Lough na Gar   #2
N: Irish title: Lo.c dor.ca na gar
R: air, jig
%S: s:4 b:16(4+4+4+4)
B: O'Neill's 1850 #477
O: Cronin
Z: henrik.norbeck@mailbox.swipnet.se
N: Compacted via repeats and multiple endings [JC]
N: Slurs and dots dropped to simplify the tune.
Q: "With feeling"
M: 6/8
L: 1/8
K: D
"^A"|: f/e/ | dcA FGA | cAg f>ed | cAF G>FG | AFD [1,3 C2 :| [2,4 D2 :|
"^B"|: d/e/ | fef g2a/g/ | f>ed cAg | f>ef g<ag | fdc d3 ||
|   /e/f/g/ | afa g>fe | dcA f>ed | cAF ~G>FG | AFD D2 :|
